svgs/sharp-regular/display-code.svg

<svg xmlns="http://www.w3.org/2000/svg" viewBox="0 0 576 512"><!--! Font Awesome Pro 6.6.0 by @fontawesome - https://fontawesome.com License - https://fontawesome.com/license (Commercial License) Copyright 2024 Fonticons, Inc. --><path d="M528 48L48 48l0 320 480 0 0-320zM48 416L0 416l0-48L0 48 0 0 48 0 528 0l48 0 0 48 0 320 0 48-48 0-163.7 0 8 48 51.7 0 24 0 0 48-24 0-72 0-128 0-72 0-24 0 0-48 24 0 51.7 0 8-48L48 416zm212.3 0l-8 48 71.3 0-8-48-55.3 0zM249 177l-31 31 31 31 17 17L232 289.9l-17-17-48-48-17-17 17-17 48-48 17-17L265.9 160l-17 17zM361 143l48 48 17 17-17 17-48 48-17 17L310.1 256l17-17 31-31-31-31-17-17L344 126.1l17 17z"/></svg>

<svg xmlns="http://www.w3.org/2000/svg" viewBox="0 0 576 512"><!--! Font Awesome Pro 6.4.2 by @fontawesome - https://fontawesome.com License - https://fontawesome.com/license (Commercial License) Copyright 2023 Fonticons, Inc. --><path d="M528 48H48V368H528V48zM48 416H0V368 48 0H48 528h48V48 368v48H528 364.3l8 48H424h24v48H424 352 224 152 128V464h24 51.7l8-48H48zm212.3 0l-8 48h71.3l-8-48H260.3zM249 177l-31 31 31 31 17 17L232 289.9l-17-17-48-48-17-17 17-17 48-48 17-17L265.9 160l-17 17zM361 143l48 48 17 17-17 17-48 48-17 17L310.1 256l17-17 31-31-31-31-17-17L344 126.1l17 17z"/></svg>
